www/assets/icons/file_json.svg

<svg width="24" height="24" viewBox="0 0 24 24" xmlns="http://www.w3.org/2000/svg" fill='currentColor'><mask id="mask0_32484_491" style="mask-type:alpha" maskUnits="userSpaceOnUse" x="0" y="0" width="24" height="24"><rect width="24" height="24"/></mask><g mask="url(#mask0_32484_491)"><path d="M4.75 15H6.5C6.78333 15 7.02083 14.9042 7.2125 14.7125C7.40417 14.5208 7.5 14.2833 7.5 14V9H6V13.75H5V12.5H3.75V14C3.75 14.2833 3.84583 14.5208 4.0375 14.7125C4.22917 14.9042 4.46667 15 4.75 15ZM9.175 15H10.675C10.9583 15 11.1958 14.9042 11.3875 14.7125C11.5792 14.5208 11.675 14.2833 11.675 14V12.5C11.675 12.2167 11.5792 11.9792 11.3875 11.7875C11.1958 11.5958 10.9583 11.5 10.675 11.5H9.425V10.25H10.425V10.75H11.675V10C11.675 9.71667 11.5792 9.47917 11.3875 9.2875C11.1958 9.09583 10.9583 9 10.675 9H9.175C8.89167 9 8.65417 9.09583 8.4625 9.2875C8.27083 9.47917 8.175 9.71667 8.175 10V11.5C8.175 11.7833 8.27083 12.0208 8.4625 12.2125C8.65417 12.4042 8.89167 12.5 9.175 12.5H10.425V13.75H9.425V13.25H8.175V14C8.175 14.2833 8.27083 14.5208 8.4625 14.7125C8.65417 14.9042 8.89167 15 9.175 15ZM13.575 13.5V10.5H14.575V13.5H13.575ZM13.325 15H14.825C15.1083 15 15.3458 14.9042 15.5375 14.7125C15.7292 14.5208 15.825 14.2833 15.825 14V10C15.825 9.71667 15.7292 9.47917 15.5375 9.2875C15.3458 9.09583 15.1083 9 14.825 9H13.325C13.0417 9 12.8042 9.09583 12.6125 9.2875C12.4208 9.47917 12.325 9.71667 12.325 10V14C12.325 14.2833 12.4208 14.5208 12.6125 14.7125C12.8042 14.9042 13.0417 15 13.325 15ZM16.5 15H17.75V12.375L18.75 15H20V9H18.75V11.625L17.75 9H16.5V15ZM3 20C2.45 20 1.97917 19.8042 1.5875 19.4125C1.19583 19.0208 1 18.55 1 18V6C1 5.45 1.19583 4.97917 1.5875 4.5875C1.97917 4.19583 2.45 4 3 4H21C21.55 4 22.0208 4.19583 22.4125 4.5875C22.8042 4.97917 23 5.45 23 6V18C23 18.55 22.8042 19.0208 22.4125 19.4125C22.0208 19.8042 21.55 20 21 20H3Z"/></g></svg>

<svg xmlns="http://www.w3.org/2000/svg" width="24" height="24" viewBox="0 0 24 24" fill='currentColor'><mask id="a" width="24" height="24" x="0" y="0" maskUnits="userSpaceOnUse" style="mask-type:alpha"><path d="M0 0h24v24H0z"/></mask><g mask="url(#a)"><path d="M4.75 15H6.5q.424 0 .713-.287A.97.97 0 0 0 7.5 14V9H6v4.75H5V12.5H3.75V14q0 .424.287.713.288.287.713.287m4.425 0h1.5q.424 0 .712-.287a.97.97 0 0 0 .288-.713v-1.5a.97.97 0 0 0-.288-.713.97.97 0 0 0-.712-.287h-1.25v-1.25h1v.5h1.25V10a.97.97 0 0 0-.288-.713.97.97 0 0 0-.712-.287h-1.5a.97.97 0 0 0-.713.287.97.97 0 0 0-.287.713v1.5q0 .424.287.713.288.287.713.287h1.25v1.25h-1v-.5h-1.25V14q0 .424.287.713.288.287.713.287m4.4-1.5v-3h1v3zm-.25 1.5h1.5q.424 0 .713-.287a.97.97 0 0 0 .287-.713v-4a.97.97 0 0 0-.287-.713.97.97 0 0 0-.713-.287h-1.5a.97.97 0 0 0-.712.287.97.97 0 0 0-.288.713v4q0 .424.288.713.287.287.712.287m3.175 0h1.25v-2.625l1 2.625H20V9h-1.25v2.625L17.75 9H16.5zM3 20q-.824 0-1.412-.587A1.93 1.93 0 0 1 1 18V6q0-.824.587-1.412A1.93 1.93 0 0 1 3 4h18q.824 0 1.413.588Q23 5.175 23 6v12q0 .824-.587 1.413A1.93 1.93 0 0 1 21 20z"/></g></svg>
